icons/arrow-block-up.svg

<svg width="24" height="24" viewBox="0 0 24 24" fill="none" xmlns="http://www.w3.org/2000/svg">
<path fill-rule="evenodd" clip-rule="evenodd" d="M12 4.18469L6.86699 13.1H10.15V20H13.75V13.1H17.1331L12 4.18469ZM13.1588 3.19112C12.6756 2.26963 11.3245 2.26963 10.8412 3.19112L5.13908 13.0949L5.12922 13.1146C4.99086 13.3913 4.95755 13.7421 5.11672 14.0604C5.28482 14.3966 5.62399 14.6 6.00004 14.6H8.65004V20.15C8.65004 20.5439 8.83946 20.8751 9.05721 21.0928C9.27497 21.3106 9.60612 21.5 10 21.5H13.9C14.294 21.5 14.6251 21.3106 14.8429 21.0928C15.0606 20.8751 15.25 20.5439 15.25 20.15V14.6H18C18.3761 14.6 18.7153 14.3966 18.8834 14.0604C19.0425 13.7421 19.0092 13.3913 18.8709 13.1146L18.861 13.0949L13.1588 3.19112Z" fill="black"/>
</svg>

<svg xmlns="http://www.w3.org/2000/svg" fill="none" viewBox="0 0 24 24">
  <path fill="#000" fill-rule="evenodd" d="M12 4.185 6.867 13.1h3.283V20h3.6v-6.9h3.383L12 4.185Zm1.159-.994c-.483-.921-1.835-.921-2.318 0L5.14 13.095l-.01.02a1.056 1.056 0 0 0-.012.945c.168.337.507.54.883.54h2.65v5.55c0 .394.19.725.407.943.218.218.55.407.943.407h3.9c.394 0 .725-.19.943-.407a1.35 1.35 0 0 0 .407-.943V14.6H18a.978.978 0 0 0 .883-.54c.16-.318.126-.669-.012-.945l-.01-.02-5.702-9.904Z" clip-rule="evenodd"/>
</svg>
